client/public/img/game/shared/weapons/vepr12_world.svg

<?xml version="1.0" encoding="UTF-8" standalone="no"?>
<!-- Created with Inkscape (http://www.inkscape.org/) -->

<svg
   width="136"
   height="25"
   viewBox="0 0 35.983333 6.6145833"
   version="1.1"
   id="svg1"
   xml:space="preserve"
   xmlns="http://www.w3.org/2000/svg"
   xmlns:svg="http://www.w3.org/2000/svg"><defs
     id="defs1" /><g
     id="layer1"><g
       id="g368-2"
       transform="matrix(1.0864479,0,0,0.99501392,-205.46446,17.26115)"
       style="stroke-width:0.381711;stroke-dasharray:none" /><g
       id="g68"
       transform="translate(0.47359654,0.09358639)"><path
         id="rect149-2-0-1-8"
         class="cls-12"
         d="m 27.713277,1.7381504 h 2.726224 c 0.03455,0 0.06051,0.029253 0.06051,0.064357 v 1.6704144 c 0,0.035104 -0.02597,0.064357 -0.06051,0.064357 h -2.726224 c -0.03455,0 -0.06052,-0.029253 -0.06052,-0.064357 V 1.8054342 c 0,-0.035104 0.02597,-0.064358 0.06052,-0.064358 z"
         style="fill:#57574f;fill-opacity:1;stroke:#181616;stroke-width:0.870962px;stroke-linecap:round;stroke-linejoin:round;stroke-opacity:1" /><path
         id="rect15685-8-3-53-9-2-7-8-1-4-7-0-1-8-18-0-1-4-2-5-2-7-7-0"
         style="fill:#55555a;fill-opacity:1;fill-rule:evenodd;stroke:#171717;stroke-width:0.79375;stroke-linecap:round;stroke-linejoin:round;stroke-miterlimit:5.89;stroke-dasharray:none;stroke-opacity:1"
         class="cls-3"
         d="m 25.28662,1.5767661 h 4.317185 v 2.121897 H 25.28662 Z" /><path
         id="rect15685-8-3-53-9-2-7-8-1-4-7-0-1-8-18-0-1-4-2-5-2-7-7-8-5"
         style="fill:#65656b;fill-opacity:1;fill-rule:evenodd;stroke:#171717;stroke-width:0.79375;stroke-linecap:round;stroke-linejoin:round;stroke-miterlimit:5.89;stroke-dasharray:none;stroke-opacity:1"
         class="cls-3"
         d="M 29.620417,1.7163834 H 32.69036 V 3.5590467 H 29.620417 Z" /><path
         id="rect15685-8-3-53-9-2-7-8-1-4-7-0-1-8-18-0-1-4-2-5-2-7-7-8-2-1"
         style="fill:#55555a;fill-opacity:1;fill-rule:evenodd;stroke:#171717;stroke-width:0.79375;stroke-linecap:round;stroke-linejoin:round;stroke-miterlimit:5.89;stroke-dasharray:none;stroke-opacity:1"
         class="cls-3"
         d="M 31.729636,1.4531187 H 35.0346 v 2.3691918 h -3.304964 z" /><path
         style="fill:#333333;fill-opacity:1;stroke:#171717;stroke-width:0.550189;stroke-linecap:round;stroke-linejoin:round;stroke-dasharray:none;stroke-opacity:1"
         d="m 19.704298,4.1423537 v 1.9251132 c -0.299055,0.1304602 -0.62537,0.1485297 -0.992122,0 V 4.1258962 Z"
         id="path127-2-9-0-8" /><path
         style="fill:#3f3f44;fill-opacity:1;stroke:none;stroke-width:0.825283;stroke-linejoin:round;stroke-dasharray:none;stroke-opacity:1"
         d="m 10.423502,1.1259362 0.01901,3.0235588 1.202437,0.5265285 h 8.29818 l -0.01912,-4.07661782 -8.317204,1.99e-6 z"
         id="path130-73-5-8-8" /><path
         style="fill:#4f4f54;fill-opacity:1;stroke:none;stroke-width:0.825283;stroke-linecap:butt;stroke-linejoin:round;stroke-dasharray:none;stroke-opacity:1"
         d="m 19.711415,1.3435348 h -7.777338 l -0.598556,0.2784805 v 2.0600938 l 0.544288,0.2497853 h 7.869707 z"
         id="path292-3-8" /><g
         id="path143-6-0"
         style="fill:#786d6d;fill-opacity:1"
         transform="matrix(1.0864479,0,0,0.99501392,-205.50892,17.24231)"><path
           style="color:#000000;fill:#786d6d;fill-opacity:1;stroke-linejoin:round;-inkscape-stroke:none"
           d="m 207.79337,-14.67778 c -2.52925,0 -4.94685,0 -7.61429,0"
           id="path366-7" /><path
           style="color:#000000;fill:#636369;fill-opacity:1;stroke-linejoin:round;-inkscape-stroke:none"
           d="m 200.17969,-15.339844 v 1.324219 h 7.61328 v -1.324219 z"
           id="path367-7" /></g><path
         style="fill:none;fill-opacity:1;stroke:#3f3f44;stroke-width:0.825283;stroke-linecap:butt;stroke-linejoin:round;stroke-dasharray:none;stroke-opacity:1"
         d="M 12.11006,1.9739458 V 3.3014834"
         id="path141-45-3" /><path
         style="fill:none;fill-opacity:1;stroke:#3f3f44;stroke-width:0.825283;stroke-linecap:butt;stroke-linejoin:round;stroke-dasharray:none;stroke-opacity:1"
         d="M 13.672839,1.9739458 V 3.3014834"
         id="path141-2-3-7" /><path
         style="fill:none;fill-opacity:1;stroke:#3f3f44;stroke-width:0.825283;stroke-linecap:butt;stroke-linejoin:round;stroke-dasharray:none;stroke-opacity:1"
         d="M 15.23928,1.9739458 V 3.3014834"
         id="path141-2-7-1-1" /><path
         style="fill:none;fill-opacity:1;stroke:#3f3f44;stroke-width:0.825283;stroke-linecap:butt;stroke-linejoin:round;stroke-dasharray:none;stroke-opacity:1"
         d="M 16.807089,1.9739458 V 3.3014834"
         id="path141-2-6-4-2" /><path
         style="fill:none;fill-opacity:1;stroke:#3f3f44;stroke-width:0.825283;stroke-linecap:butt;stroke-linejoin:round;stroke-dasharray:none;stroke-opacity:1"
         d="M 18.37353,1.9739458 V 3.3014834"
         id="path141-2-7-5-5-1" /><path
         style="fill:#57574f;fill-opacity:1;stroke:#282825;stroke-width:0.825283;stroke-linecap:butt;stroke-linejoin:round;stroke-dasharray:none;stroke-opacity:1"
         d="M 19.941144,1.9739458 V 3.3014834"
         id="path141-2-7-5-0-1-1" /><path
         style="fill:none;fill-opacity:1;stroke:#171717;stroke-width:0.396875;stroke-linecap:butt;stroke-linejoin:miter;stroke-dasharray:none;stroke-opacity:1"
         d="m 19.981245,1.9761895 h -8.219783 v 1.3230501 h 8.220913 z"
         id="path147-4-3-7-4-7-7-0" /><path
         style="fill:#5f4242;fill-opacity:1;stroke:#1c1212;stroke-width:0.79375;stroke-linejoin:round;stroke-dasharray:none;stroke-opacity:1"
         d="M 21.033557,0.37980412 21.052569,4.895626 26.736376,4.3367665 26.717254,0.87399769 Z"
         id="path130-73-8-3-6" /><path
         style="fill:#3f3f41;fill-opacity:1;stroke:none;stroke-width:0.825283;stroke-linecap:butt;stroke-linejoin:round;stroke-dasharray:none;stroke-opacity:1"
         d="m 19.677289,0.84010751 h 0.821757 L 20.85476,1.366636 h 1.993534 V 3.9087931 H 21.185062 L 20.702309,4.4353217 H 19.6773 Z"
         id="path294-26-2" /><path
         style="fill:none;fill-opacity:1;stroke:#181616;stroke-width:0.79375;stroke-linejoin:round;stroke-dasharray:none;stroke-opacity:1"
         d="m 10.551898,1.1259362 0.01901,3.0235588 1.202437,0.5265285 h 8.79246 L 21.35345,3.8039614 h 1.719684 l -0.01912,-2.3324937 -1.776788,10e-7 -0.76223,-0.87206302 -8.779792,1.99e-6 z"
         id="path130-73-0-5" /><path
         style="fill:#505049;fill-opacity:1;stroke:#181616;stroke-width:0.79375;stroke-linecap:butt;stroke-linejoin:round;stroke-dasharray:none;stroke-opacity:1"
         d="M 19.948434,0.68890221 V 4.586527"
         id="path293-8-2" /><path
         class="cls-8"
         d="m 22.216774,2.0256278 v 1.2241776 c 0,0.026328 -0.02879,0.026328 -0.02879,0.026328 H 21.3831 c -0.02879,0 -0.02879,-0.026328 -0.02879,-0.026328 V 3.0128677 h -1.006106 v 0.2895908 c 0,0.026328 -0.02868,0.026328 -0.02868,0.026328 H 19.94583 c -0.02879,0 -0.02879,-0.026328 -0.02879,-0.026328 V 3.0128677 h -0.517421 c -0.02879,0 -0.02879,-0.026328 -0.02879,-0.026328 v -0.69765 c 0,0 0,-0.026328 0.02879,-0.026328 h 0.517421 v -0.289591 c 0,0 0,-0.026328 0.02879,-0.026328 h 0.373694 c 0,0 0.02868,0 0.02868,0.026328 V 2.2625615 H 21.35431 V 2.0256238 c 0,0 0,-0.026328 0.02879,-0.026328 h 0.804884 c 0,0 0.02879,0 0.02879,0.026328 z"
         id="path5-4-1-6-1"
         style="fill:#4a4a4d;fill-opacity:1;fill-rule:evenodd;stroke:#181616;stroke-width:0.396875;stroke-linecap:round;stroke-miterlimit:15.1181;stroke-dasharray:none;stroke-opacity:1" /><path
         style="fill:#65656b;fill-opacity:1;stroke:#171717;stroke-width:0.396875;stroke-linejoin:round;stroke-dasharray:none;stroke-opacity:1"
         d="m 29.110895,1.7783579 -4.4e-5,1.7187144 0.961311,-0.1396174 -0.01912,-1.4452995 z"
         id="path130-7-8-7-3-4-5" /><path
         style="fill:#514848;fill-opacity:1;stroke:#181616;stroke-width:0.396875;stroke-linecap:round;stroke-linejoin:round;stroke-dasharray:none;stroke-opacity:1"
         d="M 29.915029,2.6377146 H 29.655346"
         id="path371-5" /><path
         style="fill:#6d6d71;fill-opacity:1;stroke:#181616;stroke-width:0.412641;stroke-linejoin:round;stroke-dasharray:none;stroke-opacity:1"
         d="M 15.470389,4.8696681 V 4.7482854 c 0.0011,-0.3423644 0.305031,-0.6715916 0.770085,-0.6880591 h 3.324542 c 0.486163,0.00995 0.789369,0.2768895 0.786088,0.7780083 v 0.028646 z"
         id="path77-6-7-8-4-1" /><g
         id="g1"
         transform="translate(32.789777,16.661624)"><path
           style="fill:#4a4a4a;fill-opacity:1;stroke:#171717;stroke-width:0.793752;stroke-linejoin:round;stroke-dasharray:none;stroke-opacity:1"
           d="m -31.724234,-15.925914 h -1.064002 v 3.804008 h 1.080002"
           id="path7-5" /><path
           style="fill:#563d3d;fill-opacity:1;stroke:none;stroke-width:0.793752;stroke-linejoin:round;stroke-dasharray:none;stroke-opacity:1"
           d="m -22.108924,-12.327906 h -1.562004 c -1.515003,-0.857002 -2.950006,-0.362001 -3.996008,0 l -4.171298,0.232 v -3.818008 l 4.071298,0.297001 c 1.115002,0.520001 2.847006,0.668002 4.096008,0 h 1.562004 z"
           id="path8-3" /><path
           style="fill:#3c2a2a;fill-opacity:1;stroke:none;stroke-width:0.793752;stroke-linejoin:round;stroke-dasharray:none;stroke-opacity:1"
           d="m -28.051937,-15.592913 c 0.738002,1.116002 0.515001,2.130005 0,3.114007 l 2.724006,-0.415001 2.166004,0.580001 v -3.329007 l -2.257004,0.449001 z"
           id="path9-2" /><path
           style="fill:none;fill-opacity:1;stroke:#1c1512;stroke-width:0.793752;stroke-linejoin:round;stroke-dasharray:none;stroke-opacity:1"
           d="m -22.095924,-12.347906 h -1.560004 c -1.516003,-0.856002 -3.093006,-0.360001 -4.139008,0 l -3.900181,0.233 v -3.818008 l 3.942181,0.297001 c 1.115002,0.520001 2.847006,0.668001 4.096008,0 h 1.561004 z"
           id="path10-4" /></g><g
         id="g67"><path
           style="fill:#5f4242;fill-opacity:1;stroke:#1c1212;stroke-width:0.79375;stroke-linejoin:round;stroke-dasharray:none;stroke-opacity:1"
           d="M 23.087714,4.7059615 26.735735,4.349037 26.716613,0.8862682 23.055154,0.5694697 Z"
           id="path130-73-8-9-73-3" /><g
           id="g66"
           transform="translate(0.01982907)"><path
             style="fill:#5f4242;fill-opacity:1;fill-rule:evenodd;stroke:#1c1212;stroke-width:0.396875;stroke-linecap:round;stroke-linejoin:round;stroke-miterlimit:29;stroke-opacity:1"
             d="M 23.875929,0.9921875 V 4.6839857"
             id="path66" /><path
             style="fill:#5f4242;fill-opacity:1;fill-rule:evenodd;stroke:#1c1212;stroke-width:0.396875;stroke-linecap:round;stroke-linejoin:round;stroke-miterlimit:29;stroke-opacity:1"
             d="M 24.553049,0.99218749 V 4.6839857"
             id="path66-7" /><path
             style="fill:#5f4242;fill-opacity:1;fill-rule:evenodd;stroke:#1c1212;stroke-width:0.386697;stroke-linecap:round;stroke-linejoin:round;stroke-miterlimit:29;stroke-opacity:1"
             d="m 25.225081,1.0856486 v 3.504876"
             id="path66-4" /><path
             style="fill:#5f4242;fill-opacity:1;fill-rule:evenodd;stroke:#1c1212;stroke-width:0.375065;stroke-linecap:round;stroke-linejoin:round;stroke-miterlimit:29;stroke-opacity:1"
             d="M 25.886207,1.1894943 V 4.4866789"
             id="path66-5" /></g></g></g></g></svg>

<svg xmlns="http://www.w3.org/2000/svg" xml:space="preserve" width="136" height="25" viewBox="0 0 35.983 6.615"><path d="M27.713 1.738h2.727c.034 0 .06.03.06.065v1.67c0 .035-.026.064-.06.064h-2.727c-.034 0-.06-.029-.06-.064V1.805c0-.035.026-.064.06-.064z" class="cls-12" style="fill:#57574f;fill-opacity:1;stroke:#181616;stroke-width:.870962px;stroke-linecap:round;stroke-linejoin:round;stroke-opacity:1" transform="translate(.474 .094)"/><path d="M25.287 1.577h4.317v2.122h-4.317Z" class="cls-3" style="fill:#55555a;fill-opacity:1;fill-rule:evenodd;stroke:#171717;stroke-width:.79375;stroke-linecap:round;stroke-linejoin:round;stroke-miterlimit:5.89;stroke-dasharray:none;stroke-opacity:1" transform="translate(.474 .094)"/><path d="M29.62 1.716h3.07V3.56h-3.07Z" class="cls-3" style="fill:#65656b;fill-opacity:1;fill-rule:evenodd;stroke:#171717;stroke-width:.79375;stroke-linecap:round;stroke-linejoin:round;stroke-miterlimit:5.89;stroke-dasharray:none;stroke-opacity:1" transform="translate(.474 .094)"/><path d="M31.73 1.453h3.305v2.37H31.73z" class="cls-3" style="fill:#55555a;fill-opacity:1;fill-rule:evenodd;stroke:#171717;stroke-width:.79375;stroke-linecap:round;stroke-linejoin:round;stroke-miterlimit:5.89;stroke-dasharray:none;stroke-opacity:1" transform="translate(.474 .094)"/><path d="M19.704 4.142v1.925c-.299.13-.625.149-.992 0V4.126Z" style="fill:#333;fill-opacity:1;stroke:#171717;stroke-width:.550189;stroke-linecap:round;stroke-linejoin:round;stroke-dasharray:none;stroke-opacity:1" transform="translate(.474 .094)"/><path d="m10.424 1.126.019 3.023 1.202.527h8.298L19.924.599h-8.317z" style="fill:#3f3f44;fill-opacity:1;stroke:none;stroke-width:.825283;stroke-linejoin:round;stroke-dasharray:none;stroke-opacity:1" transform="translate(.474 .094)"/><path d="M19.711 1.344h-7.777l-.598.278v2.06l.544.25h7.87z" style="fill:#4f4f54;fill-opacity:1;stroke:none;stroke-width:.825283;stroke-linecap:butt;stroke-linejoin:round;stroke-dasharray:none;stroke-opacity:1" transform="translate(.474 .094)"/><g style="fill:#786d6d;fill-opacity:1"><path d="M207.793-14.678h-7.614" style="color:#000;fill:#786d6d;fill-opacity:1;stroke-linejoin:round;-inkscape-stroke:none" transform="matrix(1.08645 0 0 .99501 -205.035 17.336)"/><path d="M200.18-15.34v1.324h7.613v-1.324z" style="color:#000;fill:#636369;fill-opacity:1;stroke-linejoin:round;-inkscape-stroke:none" transform="matrix(1.08645 0 0 .99501 -205.035 17.336)"/></g><path d="M12.11 1.974V3.3M13.673 1.974V3.3M15.24 1.974V3.3M16.807 1.974V3.3M18.374 1.974V3.3" style="fill:none;fill-opacity:1;stroke:#3f3f44;stroke-width:.825283;stroke-linecap:butt;stroke-linejoin:round;stroke-dasharray:none;stroke-opacity:1" transform="translate(.474 .094)"/><path d="M19.941 1.974V3.3" style="fill:#57574f;fill-opacity:1;stroke:#282825;stroke-width:.825283;stroke-linecap:butt;stroke-linejoin:round;stroke-dasharray:none;stroke-opacity:1" transform="translate(.474 .094)"/><path d="M19.981 1.976h-8.22V3.3h8.221z" style="fill:none;fill-opacity:1;stroke:#171717;stroke-width:.396875;stroke-linecap:butt;stroke-linejoin:miter;stroke-dasharray:none;stroke-opacity:1" transform="translate(.474 .094)"/><path d="m21.034.38.019 4.516 5.683-.56-.019-3.462Z" style="fill:#5f4242;fill-opacity:1;stroke:#1c1212;stroke-width:.79375;stroke-linejoin:round;stroke-dasharray:none;stroke-opacity:1" transform="translate(.474 .094)"/><path d="M19.677.84h.822l.356.527h1.993v2.542h-1.663l-.483.526h-1.025Z" style="fill:#3f3f41;fill-opacity:1;stroke:none;stroke-width:.825283;stroke-linecap:butt;stroke-linejoin:round;stroke-dasharray:none;stroke-opacity:1" transform="translate(.474 .094)"/><path d="m10.552 1.126.019 3.023 1.202.527h8.793l.787-.872h1.72l-.019-2.333h-1.777L20.515.6h-8.78z" style="fill:none;fill-opacity:1;stroke:#181616;stroke-width:.79375;stroke-linejoin:round;stroke-dasharray:none;stroke-opacity:1" transform="translate(.474 .094)"/><path d="M19.948.689v3.898" style="fill:#505049;fill-opacity:1;stroke:#181616;stroke-width:.79375;stroke-linecap:butt;stroke-linejoin:round;stroke-dasharray:none;stroke-opacity:1" transform="translate(.474 .094)"/><path d="M22.217 2.026V3.25c0 .026-.029.026-.029.026h-.805c-.029 0-.029-.026-.029-.026v-.237h-1.006v.29c0 .026-.028.026-.028.026h-.374c-.029 0-.029-.027-.029-.027v-.29H19.4c-.03 0-.03-.025-.03-.025v-.698s0-.026.03-.026h.517v-.29s0-.026.029-.026h.374s.028 0 .028.026v.29h1.006v-.237s0-.027.03-.027h.804s.029 0 .029.027z" class="cls-8" style="fill:#4a4a4d;fill-opacity:1;fill-rule:evenodd;stroke:#181616;stroke-width:.396875;stroke-linecap:round;stroke-miterlimit:15.1181;stroke-dasharray:none;stroke-opacity:1" transform="translate(.474 .094)"/><path d="M29.11 1.778v1.72l.962-.14-.019-1.446z" style="fill:#65656b;fill-opacity:1;stroke:#171717;stroke-width:.396875;stroke-linejoin:round;stroke-dasharray:none;stroke-opacity:1" transform="translate(.474 .094)"/><path d="M29.915 2.638h-.26" style="fill:#514848;fill-opacity:1;stroke:#181616;stroke-width:.396875;stroke-linecap:round;stroke-linejoin:round;stroke-dasharray:none;stroke-opacity:1" transform="translate(.474 .094)"/><path d="M15.47 4.87v-.122c.001-.342.305-.671.77-.688h3.325c.486.01.79.277.786.778v.029z" style="fill:#6d6d71;fill-opacity:1;stroke:#181616;stroke-width:.412641;stroke-linejoin:round;stroke-dasharray:none;stroke-opacity:1" transform="translate(.474 .094)"/><path d="M-31.724-15.926h-1.064v3.804h1.08" style="fill:#4a4a4a;fill-opacity:1;stroke:#171717;stroke-width:.793752;stroke-linejoin:round;stroke-dasharray:none;stroke-opacity:1" transform="translate(33.263 16.755)"/><path d="M-22.109-12.328h-1.562c-1.515-.857-2.95-.362-3.996 0l-4.171.232v-3.818l4.071.297c1.115.52 2.847.668 4.096 0h1.562z" style="fill:#563d3d;fill-opacity:1;stroke:none;stroke-width:.793752;stroke-linejoin:round;stroke-dasharray:none;stroke-opacity:1" transform="translate(33.263 16.755)"/><path d="M-28.052-15.593c.738 1.116.515 2.13 0 3.114l2.724-.415 2.166.58v-3.329l-2.257.45z" style="fill:#3c2a2a;fill-opacity:1;stroke:none;stroke-width:.793752;stroke-linejoin:round;stroke-dasharray:none;stroke-opacity:1" transform="translate(33.263 16.755)"/><path d="M-22.096-12.348h-1.56c-1.516-.856-3.093-.36-4.139 0l-3.9.233v-3.818l3.942.297c1.115.52 2.847.668 4.096 0h1.561z" style="fill:none;fill-opacity:1;stroke:#1c1512;stroke-width:.793752;stroke-linejoin:round;stroke-dasharray:none;stroke-opacity:1" transform="translate(33.263 16.755)"/><path d="m23.088 4.706 3.648-.357-.02-3.463-3.66-.317Z" style="fill:#5f4242;fill-opacity:1;stroke:#1c1212;stroke-width:.79375;stroke-linejoin:round;stroke-dasharray:none;stroke-opacity:1" transform="translate(.474 .094)"/><path d="M23.876.992v3.692M24.553.992v3.692" style="fill:#5f4242;fill-opacity:1;fill-rule:evenodd;stroke:#1c1212;stroke-width:.396875;stroke-linecap:round;stroke-linejoin:round;stroke-miterlimit:29;stroke-opacity:1" transform="translate(.493 .094)"/><path d="M25.225 1.086V4.59" style="fill:#5f4242;fill-opacity:1;fill-rule:evenodd;stroke:#1c1212;stroke-width:.386697;stroke-linecap:round;stroke-linejoin:round;stroke-miterlimit:29;stroke-opacity:1" transform="translate(.493 .094)"/><path d="M25.886 1.19v3.297" style="fill:#5f4242;fill-opacity:1;fill-rule:evenodd;stroke:#1c1212;stroke-width:.375065;stroke-linecap:round;stroke-linejoin:round;stroke-miterlimit:29;stroke-opacity:1" transform="translate(.493 .094)"/></svg>
